;FLAVOR:Marlin
;TIME:479
;Filament used: 0.286017m
;Layer height: 0.2
;MINX:97.166
;MINY:100.904
;MINZ:0.1
;MAXX:122.831
;MAXY:114.261
;MAXZ:10.1
;Generated with Cura_SteamEngine 4.8.0
M140 S60
M105
M190 S60
M82 ;absolute extrusion mode
;Sliced at: Mon 01-02-2021 23:37:17
;Basic settings: Layer height: 0.2 Walls: 1.2 Fill: 10
G21 ;metric values
G90 ;absolute positioning
M82 ;set extruder to absolute mode
M107 ;start with the fan off
M117 Start heating ...
M104 S190
M117 Homing X/Y ...
G28 X0 Y0 ;move X/Y to min endstops
M117 Homing Z ...
G28 Z0 ;move Z to min endstops
G1 Z15.0 F100 ;move the platform down 15mm
M117 Heating ...
M109 S190
M117 Start cleaning ...
G92 E0 ;zero the extruded length
G1 F200 E10 ;extrude 10mm of feed stock
G92 E0 ;zero the extruded length again
M117 Intro line ...
G1 Z2.0 F3000 ; Move Z Axis up little to prevent scratching of Heat Bed
G1 X0.1 Y20 Z0.2 F5000.0 ; Move to start position
G1 X0.1 Y200.0 Z0.2 F1500.0 E15 ; Draw the first line
G1 X0.4 Y200.0 Z0.2 F5000.0 ; Move to side a little
G1 X0.4 Y20 Z0.3 F1500.0 E30 ; Draw the second line
G92 E0 ; Reset Extruder
G1 E-1 F500 ; Retract filiment by 1 mm
G1 Z2.0 F3000 ; Move Z Axis up little to prevent scratching of Heat Bed
G1 X5 Y20 Z0.3 F100 ; Move over to prevent blob squish
G1 F100
G92 E0 ; Reset Extruder
M117 Printing...

G92 E0
G92 E0
G1 F1200 E-10
;LAYER_COUNT:50
;LAYER:0
M106 S255
G1 F300 Z0.3
G0 F1800 X98.603 Y102.613 Z0.3
;TYPE:SKIRT
G1 F300 Z0.1
G1 F1200 E0
G1 X99.077 Y102.163 E0.01413
G1 X99.602 Y101.774 E0.02826
G1 X100.171 Y101.453 E0.04238
G1 X100.775 Y101.203 E0.05651
G1 X101.404 Y101.029 E0.07062
G1 X102.36 Y100.915 E0.09144
G1 X102.83 Y100.904 E0.1016
G1 X116.793 Y100.904 E0.40347
G1 X117.567 Y100.915 E0.4202
G1 X118.219 Y100.964 E0.43434
G1 X118.859 Y101.092 E0.44845
G1 X119.48 Y101.298 E0.46259
G1 X120.07 Y101.578 E0.47671
G1 X120.622 Y101.928 E0.49084
G1 X121.126 Y102.343 E0.50496
G1 X121.577 Y102.816 E0.51908
G1 X121.966 Y103.34 E0.53319
G1 X122.288 Y103.909 E0.54733
G1 X122.539 Y104.512 E0.56145
G1 X122.714 Y105.141 E0.57556
G1 X122.829 Y106.098 E0.5964
G1 X122.831 Y106.905 E0.61385
G1 X122.783 Y107.557 E0.62798
G1 X122.656 Y108.198 E0.64211
G1 X122.452 Y108.818 E0.65622
G1 X122.173 Y109.409 E0.67035
G1 X121.824 Y109.962 E0.68449
G1 X121.411 Y110.467 E0.69859
G1 X120.939 Y110.919 E0.71272
G1 X120.415 Y111.309 E0.72684
G1 X119.847 Y111.633 E0.74098
G1 X119.245 Y111.885 E0.75509
G1 X118.616 Y112.061 E0.76921
G1 X117.97 Y112.159 E0.78333
G1 X117.321 Y112.188 E0.79738
G1 X117.171 Y112.19 E0.80062
G1 X103.134 Y112.189 E1.10409
G1 X102.44 Y112.18 E1.11909
G1 X101.788 Y112.131 E1.13323
G1 X101.148 Y112.004 E1.14733
G1 X100.527 Y111.799 E1.16147
G1 X99.937 Y111.52 E1.17558
G1 X99.384 Y111.17 E1.18973
G1 X98.879 Y110.756 E1.20385
G1 X98.428 Y110.284 E1.21796
G1 X98.038 Y109.76 E1.23208
G1 X97.715 Y109.192 E1.24621
G1 X97.463 Y108.589 E1.26034
G1 X97.288 Y107.96 E1.27445
G1 X97.19 Y107.314 E1.28858
G1 X97.166 Y106.768 E1.30039
G1 X97.171 Y106.17 E1.31332
G1 X97.221 Y105.518 E1.32746
G1 X97.35 Y104.878 E1.34157
G1 X97.557 Y104.258 E1.35571
G1 X97.837 Y103.668 E1.36982
G1 X98.188 Y103.117 E1.38395
G1 X98.603 Y102.613 E1.39806
G0 F1800 X99.113 Y102.833
G1 F1200 X99.581 Y102.425 E1.41149
G1 X100.097 Y102.081 E1.42489
G1 X100.653 Y101.805 E1.43831
G1 X101.24 Y101.603 E1.45173
G1 X101.848 Y101.479 E1.46515
G1 X102.374 Y101.435 E1.47656
G1 X102.83 Y101.424 E1.48642
G1 X116.862 Y101.424 E1.78978
G1 X117.56 Y101.434 E1.80487
G1 X118.179 Y101.483 E1.8183
G1 X118.786 Y101.611 E1.83171
G1 X119.372 Y101.816 E1.84513
G1 X119.927 Y102.095 E1.85856
G1 X120.441 Y102.442 E1.87197
G1 X120.906 Y102.853 E1.88538
G1 X121.315 Y103.32 E1.8988
G1 X121.66 Y103.835 E1.9122
G1 X121.937 Y104.391 E1.92563
G1 X122.139 Y104.978 E1.93905
G1 X122.264 Y105.586 E1.95247
G1 X122.309 Y106.113 E1.96391
G1 X122.311 Y106.899 E1.9809
G1 X122.263 Y107.518 E1.99432
G1 X122.137 Y108.125 E2.00773
G1 X121.933 Y108.712 E2.02116
G1 X121.656 Y109.267 E2.03457
G1 X121.31 Y109.782 E2.04798
G1 X120.9 Y110.248 E2.0614
G1 X120.434 Y110.658 E2.07482
G1 X119.919 Y111.005 E2.08825
G1 X119.364 Y111.282 E2.10166
G1 X118.778 Y111.486 E2.11507
G1 X118.17 Y111.613 E2.1285
G1 X117.627 Y111.659 E2.14028
G1 X117.171 Y111.67 E2.15014
G1 X103.14 Y111.669 E2.45348
G1 X102.446 Y111.66 E2.46848
G1 X101.828 Y111.612 E2.48188
G1 X101.22 Y111.485 E2.49531
G1 X100.634 Y111.28 E2.50873
G1 X100.079 Y111.003 E2.52214
G1 X99.564 Y110.656 E2.53557
G1 X99.098 Y110.246 E2.54899
G1 X98.689 Y109.779 E2.56241
G1 X98.343 Y109.264 E2.57582
G1 X98.066 Y108.709 E2.58923
G1 X97.863 Y108.122 E2.60266
G1 X97.736 Y107.515 E2.61607
G1 X97.69 Y106.959 E2.62813
G1 X97.691 Y106.178 E2.64501
G1 X97.74 Y105.559 E2.65844
G1 X97.869 Y104.952 E2.67185
G1 X98.075 Y104.366 E2.68528
G1 X98.354 Y103.812 E2.69869
G1 X98.702 Y103.298 E2.71211
G1 X99.113 Y102.833 E2.72553
G0 F1800 X99.215 Y103.49
G1 F1200 X99.621 Y103.068 E2.73819
G1 X100.081 Y102.705 E2.75086
G1 X100.587 Y102.407 E2.76355
G1 X101.127 Y102.181 E2.77621
G1 X101.694 Y102.031 E2.78889
G1 X102.389 Y101.955 E2.804
G1 X102.83 Y101.944 E2.81354
G1 X116.855 Y101.944 E3.11675
G1 X117.553 Y101.954 E3.13184
G1 X118.137 Y102.003 E3.14451
G1 X118.709 Y102.13 E3.15718
G1 X119.258 Y102.334 E3.16984
G1 X119.775 Y102.611 E3.18252
G1 X120.249 Y102.955 E3.19518
G1 X120.672 Y103.361 E3.20786
G1 X121.036 Y103.821 E3.22054
G1 X121.334 Y104.326 E3.23321
G1 X121.561 Y104.866 E3.24588
G1 X121.712 Y105.433 E3.25856
G1 X121.789 Y106.128 E3.27368
G1 X121.791 Y106.893 E3.29022
G1 X121.744 Y107.477 E3.30288
G1 X121.618 Y108.049 E3.31555
G1 X121.415 Y108.599 E3.32822
G1 X121.139 Y109.117 E3.34091
G1 X120.796 Y109.592 E3.35358
G1 X120.391 Y110.016 E3.36625
G1 X119.932 Y110.381 E3.37893
G1 X119.428 Y110.68 E3.3916
G1 X118.888 Y110.908 E3.40427
G1 X118.322 Y111.06 E3.41694
G1 X117.612 Y111.139 E3.43239
G1 X117.171 Y111.15 E3.44192
G1 X103.147 Y111.149 E3.74511
G1 X102.453 Y111.14 E3.76012
G1 X101.869 Y111.092 E3.77278
G1 X101.297 Y110.966 E3.78545
G1 X100.747 Y110.762 E3.79813
G1 X100.23 Y110.486 E3.8108
G1 X99.755 Y110.142 E3.82348
G1 X99.331 Y109.737 E3.83615
G1 X98.967 Y109.278 E3.84882
G1 X98.668 Y108.774 E3.86149
G1 X98.441 Y108.233 E3.87417
G1 X98.289 Y107.667 E3.88684
G1 X98.21 Y106.946 E3.90252
G1 X98.211 Y106.186 E3.91895
G1 X98.26 Y105.602 E3.93162
G1 X98.388 Y105.03 E3.94429
G1 X98.592 Y104.48 E3.95698
G1 X98.87 Y103.964 E3.96965
G1 X99.215 Y103.49 E3.98232
G0 F1800 X99.727 Y103.695
G1 F1200 X100.127 Y103.319 E3.99419
G1 X100.578 Y103.004 E4.00608
G1 X101.069 Y102.758 E4.01796
G1 X101.591 Y102.586 E4.02984
G1 X102.404 Y102.474 E4.04758
G1 X102.83 Y102.464 E4.05679
G1 X116.847 Y102.464 E4.35983
G1 X117.545 Y102.474 E4.37492
G1 X118.093 Y102.522 E4.38681
G1 X118.627 Y102.649 E4.39868
G1 X119.138 Y102.852 E4.41057
G1 X119.614 Y103.127 E4.42245
G1 X120.045 Y103.467 E4.43432
G1 X120.422 Y103.867 E4.4462
G1 X120.737 Y104.317 E4.45808
G1 X120.984 Y104.809 E4.46998
G1 X121.156 Y105.33 E4.48184
G1 X121.269 Y106.144 E4.49961
G1 X121.271 Y106.886 E4.51565
G1 X121.224 Y107.434 E4.52754
G1 X121.099 Y107.969 E4.53942
G1 X120.897 Y108.48 E4.5513
G1 X120.623 Y108.957 E4.56319
G1 X120.284 Y109.389 E4.57506
G1 X119.885 Y109.767 E4.58694
G1 X119.435 Y110.083 E4.59883
G1 X118.945 Y110.33 E4.61069
G1 X118.423 Y110.504 E4.62259
G1 X117.882 Y110.601 E4.63447
G1 X117.277 Y110.629 E4.64757
G1 X103.154 Y110.629 E4.95289
G1 X102.46 Y110.62 E4.9679
G1 X101.912 Y110.573 E4.97979
G1 X101.378 Y110.447 E4.99165
G1 X100.867 Y110.245 E5.00353
G1 X100.39 Y109.97 E5.01543
G1 X99.959 Y109.63 E5.0273
G1 X99.581 Y109.231 E5.03918
G1 X99.265 Y108.781 E5.05107
G1 X99.018 Y108.29 E5.06295
G1 X98.845 Y107.769 E5.07482
G1 X98.749 Y107.228 E5.0867
G1 X98.724 Y106.578 E5.10076
G1 X98.73 Y106.194 E5.10906
G1 X98.779 Y105.647 E5.12094
G1 X98.906 Y105.112 E5.13283
G1 X99.11 Y104.601 E5.14472
G1 X99.385 Y104.126 E5.15659
G1 X99.727 Y103.695 E5.16848
G0 F1800 X100.237 Y103.916
G1 F1200 X100.629 Y103.59 E5.1795
G1 X101.068 Y103.329 E5.19054
G1 X101.542 Y103.14 E5.20158
G1 X102.039 Y103.027 E5.2126
G1 X102.738 Y102.985 E5.22773
G1 X116.84 Y102.984 E5.53261
G1 X117.538 Y102.994 E5.5477
G1 X118.046 Y103.042 E5.55873
G1 X118.54 Y103.167 E5.56975
G1 X119.009 Y103.369 E5.58079
G1 X119.441 Y103.641 E5.59182
G1 X119.825 Y103.978 E5.60287
G1 X120.151 Y104.37 E5.61389
G1 X120.413 Y104.808 E5.62492
G1 X120.603 Y105.281 E5.63594
G1 X120.716 Y105.779 E5.64698
G1 X120.755 Y106.33 E5.65893
G1 X120.751 Y106.88 E5.67082
G1 X120.705 Y107.388 E5.68184
G1 X120.58 Y107.883 E5.69288
G1 X120.379 Y108.352 E5.70391
G1 X120.108 Y108.785 E5.71496
G1 X119.773 Y109.169 E5.72597
G1 X119.382 Y109.497 E5.73701
G1 X118.944 Y109.759 E5.74804
G1 X118.471 Y109.95 E5.75907
G1 X117.973 Y110.065 E5.77012
G1 X117.263 Y110.109 E5.7855
G1 X103.161 Y110.109 E6.09037
G1 X102.467 Y110.1 E6.10538
G1 X101.959 Y110.053 E6.1164
G1 X101.464 Y109.928 E6.12744
G1 X100.995 Y109.727 E6.13847
G1 X100.563 Y109.455 E6.14951
G1 X100.179 Y109.12 E6.16053
G1 X99.851 Y108.728 E6.17158
G1 X99.589 Y108.29 E6.18261
G1 X99.399 Y107.817 E6.19363
G1 X99.284 Y107.319 E6.20468
G1 X99.245 Y106.717 E6.21772
G1 X99.25 Y106.202 E6.22886
G1 X99.298 Y105.694 E6.23989
G1 X99.425 Y105.2 E6.25091
G1 X99.627 Y104.731 E6.26195
G1 X99.9 Y104.3 E6.27298
G1 X100.237 Y103.916 E6.28403
G1 F1200 E-3.71597
G1 F300 Z0.3
;MESH:sh82_int.stl
G0 F1800 X117.24 Y106.59 Z0.3
;TYPE:WALL-OUTER
G1 F300 Z0.1
G1 F1200 E6.28403
G1 F1500 X102.76 Y106.589 E6.59707
G1 X102.76 Y106.504 E6.59891
G1 X117.24 Y106.504 E6.65038
G1 X117.24 Y106.59 E6.65224
G0 F1800 X117.04 Y106.59
M104 S190
G0 X117.04 Y106.764
;MESH:NONMESH
G0 F300 X117.04 Y106.764 Z0.3
G0 F1800 X116.9 Y106.557
;TIME_ELAPSED:26.894312
;LAYER:1
;TYPE:WALL-INNER
;MESH:sh82_int.stl
G1 F704.2 X103.1 Y106.558 E7.11123
G1 X103.1 Y106.537 E7.11193
G1 X116.9 Y106.538 E7.13494
G1 X116.9 Y106.557 E7.13557
G0 F6000 X117.3 Y106.957
;TYPE:WALL-OUTER
G1 F704.2 X102.9 Y106.958 E7.61452
G1 X102.7 Y106.958 E7.62117
G1 X102.7 Y106.758 E7.62548
G1 X102.7 Y106.337 E7.63948
G1 X102.7 Y106.137 E7.64613
G1 X102.9 Y106.137 E7.65044
G1 X117.3 Y106.138 E8.12938
G1 X117.3 Y106.957 E8.15662
G0 F6000 X117.1 Y106.957
G0 X116.7 Y106.357
;MESH:NONMESH
G0 F300 X116.7 Y106.357 Z0.5
G0 F6000 X116.9 Y106.903
;TIME_ELAPSED:32.158558
;LAYER:2
;TYPE:WALL-INNER
;MESH:sh82_int.stl
G1 F940.3 X103.299 Y106.904 E8.60899
G1 X103.1 Y106.904 E8.61561
G1 X103.1 Y106.705 E8.6199
G1 X103.1 Y106.344 E8.6319
G1 X116.9 Y106.344 E9.09089
G1 X116.9 Y106.903 E9.10948
G0 F6000 X117.3 Y107.303
;TYPE:WALL-OUTER
G1 F940.3 X102.9 Y107.304 E9.58843
G1 X102.7 Y107.304 E9.59508
G1 X102.7 Y107.104 E9.59939
G1 X102.7 Y105.944 E9.63797
G1 X117.3 Y105.944 E10.12357
G1 X117.3 Y107.303 E10.16877
G0 F6000 X117.1 Y107.303
G0 X116.86 Y106.863
G0 X116.522 Y106.623
;TYPE:SKIN
G1 F705.2 X116.239 Y106.623 E10.17286
G1 X103.511 Y106.623 E10.35683
G0 F6000 X103.427 Y106.544
;MESH:NONMESH
G0 F300 X103.427 Y106.544 Z0.7
G0 F6000 X116.5 Y106.849
;TIME_ELAPSED:37.753908
;LAYER:3
;TYPE:WALL-INNER
;MESH:sh82_int.stl
G1 F1100.5 X103.5 Y106.85 E10.78921
G1 X103.5 Y106.628 E10.79659
G1 X116.5 Y106.628 E11.03662
G1 X116.5 Y106.849 E11.04398
G0 F6000 X116.9 Y107.249
G1 F1100.5 X103.299 Y107.25 E11.49635
G1 X103.1 Y107.25 E11.50296
G1 X103.1 Y107.051 E11.50725
G1 X103.1 Y106.228 E11.53462
G1 X116.9 Y106.228 E11.99361
G1 X116.9 Y107.249 E12.02757
G0 F6000 X117.3 Y107.649
;TYPE:WALL-OUTER
G1 F1100.5 X102.9 Y107.65 E12.50651
G1 X102.7 Y107.65 E12.51317
G1 X102.7 Y107.45 E12.51747
G1 X102.7 Y105.828 E12.57142
G1 X117.3 Y105.828 E13.05702
G1 X117.3 Y107.649 E13.11759
G0 F6000 X117.1 Y107.649
G0 X116.86 Y107.209
G0 X116.701 Y107.049
;MESH:NONMESH
G0 F300 X116.701 Y107.049 Z0.9
G0 F6000 X116.5 Y107.196
;TIME_ELAPSED:43.044171
;LAYER:4
;TYPE:WALL-INNER
;MESH:sh82_int.stl
G1 F1263.5 X103.699 Y107.197 E13.54335
G1 X103.5 Y107.197 E13.54997
G1 X103.5 Y106.998 E13.55425
G1 X103.5 Y106.76 E13.56217
G1 X103.5 Y106.561 E13.56879
G1 X103.699 Y106.561 E13.57307
G1 X116.5 Y106.562 E13.99883
G1 X116.5 Y107.196 E14.01992
G0 F6000 X116.9 Y107.596
G1 F1263.5 X103.299 Y107.597 E14.47229
G1 X103.1 Y107.597 E14.47891
G1 X103.1 Y107.398 E14.48319
G1 X103.1 Y106.36 E14.51771
G1 X103.1 Y106.161 E14.52433
G1 X103.299 Y106.161 E14.52861
G1 X116.9 Y106.162 E14.98099
G1 X116.9 Y107.596 E15.02868
G0 F6000 X117.3 Y107.996
;TYPE:WALL-OUTER
G1 F1263.5 X102.9 Y107.997 E15.50763
G1 X102.7 Y107.997 E15.51428
G1 X102.7 Y107.797 E15.51859
G1 X102.7 Y105.961 E15.57965
G1 X102.7 Y105.761 E15.5863
G1 X102.9 Y105.761 E15.59061
G1 X117.3 Y105.762 E16.06956
G1 X117.3 Y107.996 E16.14386
G0 F6000 X117.1 Y107.996
G0 X116.86 Y107.556
G0 X116.067 Y107.016
;TYPE:SKIN
G1 F947.6 X115.792 Y106.742 E16.15677
G0 F6000 X115.501 Y107.016
G1 F947.6 X115.227 Y106.742 E16.16966
G0 F6000 X114.935 Y107.016
G1 F947.6 X114.661 Y106.742 E16.18255
G0 F6000 X114.37 Y107.016
G1 F947.6 X114.095 Y106.742 E16.19546
G0 F6000 X113.804 Y107.016
G1 F947.6 X113.53 Y106.742 E16.20835
G0 F6000 X113.238 Y107.016
G1 F947.6 X112.964 Y106.742 E16.22124
G0 F6000 X112.673 Y107.016
G1 F947.6 X112.398 Y106.742 E16.23415
G0 F6000 X112.107 Y107.016
G1 F947.6 X111.833 Y106.742 E16.24704
G0 F6000 X111.541 Y107.016
G1 F947.6 X111.267 Y106.742 E16.25992
G0 F6000 X110.976 Y107.016
G1 F947.6 X110.701 Y106.742 E16.27284
G0 F6000 X110.41 Y107.016
G1 F947.6 X110.136 Y106.742 E16.28572
G0 F6000 X109.844 Y107.016
G1 F947.6 X109.569 Y106.741 E16.29866
G0 F6000 X109.279 Y107.016
G1 F947.6 X109.004 Y106.741 E16.31159
G0 F6000 X108.713 Y107.016
G1 F947.6 X108.438 Y106.741 E16.32453
G0 F6000 X108.147 Y107.016
G1 F947.6 X107.872 Y106.741 E16.33746
G0 F6000 X107.582 Y107.016
G1 F947.6 X107.306 Y106.741 E16.35042
G0 F6000 X107.016 Y107.016
G1 F947.6 X106.741 Y106.741 E16.36336
G0 F6000 X106.45 Y107.016
G1 F947.6 X106.175 Y106.741 E16.37629
G0 F6000 X105.884 Y107.016
G1 F947.6 X105.609 Y106.741 E16.38923
G0 F6000 X105.319 Y107.016
G1 F947.6 X105.044 Y106.741 E16.40216
G0 F6000 X104.753 Y107.016
G1 F947.6 X104.478 Y106.741 E16.4151
G0 F6000 X104.187 Y107.016
G1 F947.6 X103.912 Y106.741 E16.42803
G0 F6000 X103.912 Y106.372
;MESH:NONMESH
G0 F300 X103.912 Y106.372 Z1.1
G0 F6000 X116.318 Y106.744
G0 X116.1 Y107.142
;TIME_ELAPSED:49.978708
;LAYER:5
;TYPE:WALL-INNER
;MESH:sh82_int.stl
G1 F1464.6 X103.9 Y107.143 E16.83381
G1 X103.9 Y106.939 E16.84059
G1 X116.1 Y106.939 E17.04755
G1 X116.1 Y107.142 E17.0543
G0 F6000 X116.5 Y107.542
G1 F1464.6 X103.699 Y107.543 E17.48006
G1 X103.5 Y107.543 E17.48668
G1 X103.5 Y107.344 E17.49096
G1 X103.5 Y106.539 E17.51774
G1 X116.5 Y106.539 E17.95012
G1 X116.5 Y107.542 E17.98348
G0 F6000 X116.9 Y107.942
G1 F1464.6 X103.299 Y107.943 E18.43585
G1 X103.1 Y107.943 E18.44247
G1 X103.1 Y107.744 E18.44675
G1 X103.1 Y106.139 E18.50013
G1 X116.9 Y106.139 E18.95912
G1 X116.9 Y107.942 E19.01909
G0 F6000 X117.3 Y108.342
;TYPE:WALL-OUTER
G1 F1464.6 X102.9 Y108.343 E19.49804
G1 X102.7 Y108.343 E19.50469
G1 X102.7 Y108.143 E19.509
G1 X102.7 Y105.739 E19.58895
G1 X117.3 Y105.739 E20.07455
G1 X117.3 Y108.342 E20.16113
G0 F6000 X117.1 Y108.342
G0 X116.86 Y107.902
G0 X116.701 Y107.742
;MESH:NONMESH
G0 F300 X116.701 Y107.742 Z1.3
G0 F6000 X116.5 Y107.889
;TIME_ELAPSED:55.528401
;LAYER:6
;TYPE:WALL-INNER
;MESH:sh82_int.stl
G1 F1700.7 X103.699 Y107.89 E20.58689
G1 X103.5 Y107.89 E20.59351
G1 X103.5 Y107.691 E20.59779
G1 X103.5 Y106.539 E20.63611
G1 X116.5 Y106.539 E21.06849
G1 X116.5 Y107.889 E21.11339
G0 F6000 X116.9 Y108.289
G1 F1700.7 X103.299 Y108.29 E21.56576
G1 X103.1 Y108.29 E21.57238
G1 X103.1 Y108.091 E21.57666
G1 X103.1 Y106.139 E21.64159
G1 X116.9 Y106.139 E22.10058
G1 X116.9 Y108.289 E22.17209
G0 F6000 X117.3 Y108.689
;TYPE:WALL-OUTER
G1 F1700.7 X102.9 Y108.69 E22.65103
G1 X102.7 Y108.69 E22.65768
G1 X102.7 Y108.49 E22.66199
G1 X102.7 Y105.739 E22.75349
G1 X117.3 Y105.739 E23.23909
G1 X117.3 Y108.689 E23.33721
G0 F6000 X117.1 Y108.689
G0 X116.86 Y108.249
G0 X116.39 Y107.499
G0 X116.11 Y107.499
;TYPE:SKIN
G1 F1275.5 X103.89 Y107.5 E23.74364
G1 X103.89 Y106.929 E23.76264
G1 X116.11 Y106.929 E24.16907
G1 X116.11 Y107.499 E24.18803
